X:1
T:Piano Sonate Nr. 1
T:Piano Sonata No 1 - KV 279
T: 1st Movement - Allegro
T:Wolfgang Amadeus Mozart
T:2nd Movement - Andante
T:Piano Sonata No 1 - KV 279
T:Piano Sonata No 1 - KV 279
T:3rd Movement - Allegro 
T:Public Domain
T:Public Domain
T:Public Domain
T:Public Domain
T:Public Domain
T:Public Domain
T:Public Domain
T:Public Domain
T:Public Domain
T:Public Domain
T:Public Domain
T:Public Domain
T:Public Domain
T:Public Domain
T:Public Domain
T:Public Domain
C:Wolfgang Amadeus Mozart
Z:Public Domain
%%score { ( 1 4 ) | ( 2 3 ) }
L:1/8
Q:1/4=120
M:4/4
K:C
V:1 treble nm="Piano" snm="Pno."
V:4 treble 
V:2 bass 
V:3 bass 
V:1
 [EGc]2 z c/B/ d/c/e/d/ f/e/g/f/ | [Adfa]2 g/f/e/d/ c/B/c/e/ d/f/B/d/ | %2
 [EGc]2 z c/B/ d/c/e/d/ f/e/g/f/ | [Adfa]2 g/f/e/d/ c/B/c/e/ d/f/B/d/ | cc/B/ ce ^c2 d z | %5
 z d/^c/ df ^d2 e z | z a/4g/4^f/4g/4 c'_b ^g2 a z | c'2 b/a/g/f/ ^f2 g z | %8
 z2 G/c/e/g/ z2 A/c/f/a/ | gf/e/ de/f/ f2 e z | z2 G/c/e/g/ z2 A/c/f/a/ | gf/e/ dc/B/ c2 [G_Be-]2 | %12
 [G_Be][Af][FA][D=B] [Ec]2 [G_Be]2 | [G_Be][Af][FA]T[D=B] Pc/B/c/e/ Td/c/d/f/ | %14
 Te/d/e/g/ Tf/e/f/a/ g/c'/e'/b/ c'/g/a/f/ | Ted z2 d2 d2 | b4 b/a/^g/f/ e/d/c/B/ | %17
 d/c/B/c/ B/c/d/c/ c2 c2 | a4- a/g/^f/e/ d/c/B/A/ | B2 dd e>^f gf/e/ | d2 d/B/d/B/ e>^f g=f/e/ | %21
 db/a/ g/^f/e/d/ ca/g/ f/e/d/c/ | Bg/^f/ e/d/c/B/ Ae/d/ c/B/A/G/ | %23
 ^F/d/b/a/ g/^f/e/d/ d/^c/a/g/ f/e/d/=c/ | c/B/g/^f/ e/d/c/B/ A2 B3/2A/4B/4 | c3 B AABB | %26
 c3 B A2 z2 | c2 z2 e2 z2 | Acea c'aec | d2 c/B/A/G/ A4 | Gg/g/ g/d/B/G/ Aa/a/ a/^f/d/A/ | %31
 Bb/b/ b/g/d/B/ ^c/e/c/A/ B/=c/A/^F/ | G/^f/g/f/ g/d/B/G/ A/^g/a/g/ a/=f/d/A/ | %33
 B/^a/b/a/ b/g/d/B/ ^d/e/c/A/ B/c/A/^F/ | G/g/b/a/ g/^f/e/d/ c/B/A/G/ ^F/E/D/^C/ | %35
 C4 C/D/E/D/ ED/C/ | [A,C]4 [G,B,]/G/^F/G/ D/d/^c/d/ | B/g/^f/g/ d/b/a/b/ g z z2 :: %38
 [_B,DG]2 z G/D/ _B/G/d/B/ g/d/B/G/ | [EA^c]2 z A/E/ c/A/e/c/ a/e/c/A/ | %40
 [FAd]2 z A/F/ d/A/f/d/ a/f/d/A/ | [DGB]2 z G/D/ B/G/d/B/ g/d/B/G/ | %42
 [EGc]2 z G/E/ c/G/e/c/ g/e/c/G/ | [DG_B]2 z F/D/ B/F/d/B/ f/d/_b/a/ | ^g/b/f/b/ e/b/d/b/ c2 a=g | %45
 ^f/a/_e/a/ d/a/c/a/ _B2 g=f | e/g/d/g/ c/g/_B/g/ A2 z2 | z a/b/ c'c' c'2 g z | %48
 f3/2e/4f/4 gf ^d2 e z | z e/f/ gg g2 f z | c3/2B/4c/4 dc B/G/c/A/ d/B/e/c/ | %51
 [df]2 [fd']2 e/c/f/c/ g/e/a/f/ | [eg]2 [ec']2 B/G/c/A/ d/B/e/c/ | [df]2 [fd']2 e/c/f/c/ g/e/a/f/ | %54
 [eg]2 [ec']2 [db]/g/^f/g/ c'/g/e/c/ | g/G/^F/G/ c/G/E/C/ G/G,/A,/B,/ C/D/E/F/ | %56
 G/A/B/c/ d/e/^f/g/ ^g/a/=f/d/ e/f/d/B/ | [EGc]2 z c/B/ d/c/e/d/ f/e/g/f/ | %58
 [Adfa]2 g/f/e/d/ c/B/c/e/ d/f/B/d/ | [EGc]2 z c/B/ d/c/e/d/ f/e/g/f/ | %60
 [Adfa]2 g/f/e/d/ c/B/c/e/ d/f/B/d/ | cc/B/ cg f2 e z | z ec'e g2 f z | z fga _b2 ^c z | %64
 z efg ^g2 B z | z c g3 ^f =f2 | fe _e3/2d/4e/4 d2 [dfb]2 | [dfb][ec'][ce][A^f] [Bg]2 [DFB]2 | %68
 [DFB][Ec][CE][A,^F] [B,G]2 z2 | G2 G2 e4 | e/G/A/^c/ e/g/a/^c'/ e'/d'/c'/_b/ a/g/f/e/ | %71
 g/f/e/f/ e/f/g/f/ F2 F2 | d4 d/F/G/B/ d/f/g/b/ | d'/c'/b/a/ g/f/e/d/ e2 gg | %74
 a>b c'b/a/ g z g/e/g/e/ | a>b c'b/a/ ge'/d'/ c'/b/a/g/ | fd'/c'/ b/a/g/f/ ec'/b/ a/g/f/e/ | %77
 da/g/ f/e/d/c/ B2 GG | A>B cB/A/ G z G/E/G/E/ | A>B cB/A/ G/c/e/d/ c/B/A/G/ | %80
 G/^F/d/c/ B/A/G/=F/ F/E/c/B/ A/G/F/E/ | D z D/F/A/d/ z2 E/G/B/e/ | z2 F/A/c/f/ z2 d'/b/g/f/ | %83
 d/B/G/F/ z2 c/B/c/e/ d/c/d/f/ | e/d/e/g/ f/e/f/a/ g/c'/e'/b/ c'/g/a/f/ | %85
 ed z/ g/f/e/ d2 e3/2d/4e/4 | f3 e ddee | f3 e d2 z2 | a2 z2 c'2 z2 | ac'fa dfAc | g2 f/e/d/c/ d4 | %91
 cc'/c'/ c'/g/e/c/ dd'/d'/ d'/b/g/d/ | ee'/e'/ c'/g/e/c/ ^g/a/f/d/ e/=g/d/B/ | %93
 c/B/c/B/ c/G/E/C/ D/^c/d/c/ d/B/G/D/ | E/^d/e/d/ e/c/G/E/ ^G/A/F/D/ E/F/D/B,/ | %95
 C/c/e/d/ c/B/A/G/ F/E/D/C/[K:bass] B,/A,/G,/^F,/ | F,4 F,/G,/A,/G,/ A,G,/F,/ | %97
 [D,F,]4 [C,E,]/C/B,/C/ G,/[K:treble]G/^F/G/ | E/c/B/c/ G/e/d/e/ c/c/B/c/ e/c/g/e/ | %99
 c'2 [egc']2 [egc']2 z2 :|[K:F][M:3/4]!f![Q:1/4=80] F/ | c2{/=B} c2({/Bcd)} c2 | %102
 (b2 B2) z!p! !2!A | (3(G!4!B!2!G) (3(FAF) (3(!1!EGE) |!f! (b2 B2) z A!p! | %105
 (3(GBG) (3(FAF) (3(EGE) |!f! F2 (3z!p! !1!EF (3(GF!1!!4![GB]) | %107
!f! (3(!2!!5![FA]!1!!4![EG]!2!!3![^D^F]) (3[EG]!p!(!2!F!1!G) (3(!3!AG)[Ac] | %108
!f! (3!2!!4![GB]!1!!5![FA]!2!!4![E^G] [FA]2 !5!c'2- | (3c'(^c'd') (3(=c'b).!4!a (3(!5!ag).f | %110
 (3[ce]!p!gg (3ggg (3ggg |!f! (3z (=Bd)!p! (3(cBd) (3(cB!2!d) |!f! (3z (ce)!p! (3(dce) (3(dce) | %113
!f! (3z (d=f)!p! (3(edf) (3(edf) | (3z!p! (ef (3^fg^g (3a=bc') |!f! d2- (3d!p!(!4!ag) (3Pfe!f!d | %116
 (3(!3!g^ga) c2 T!2!=B3/2A/4B/4 | c2 z2 z2 | %118
 (3z!f! ([d=b][_ec']) (3z!p! ([ec'][db]) (3z!f! ([=e^g][fa]) | %119
 (3z!p! ([fa][eg]) (3z!f! ([eg][df]) (3z!p! ([df][ce]) |!p! (!2!A2 !1!G2 !2!F2) | %121
!f!{/!1!!5![fa]} !2!!4![eg]2{/!1!!5![eg]} !2!!4![df]2{/[df]} [ce]2 |!p! (3(ed) z z2 z2 | %123
!f! (3(d_e) z z2 z2 |!p! (3(^de) z z2!f! (3(^fg) z | z2({/cde)} Td3 c/d/ | %126
 (3(c!2!e!4!g) T!3!!5!g3/2^f/4g/4 (3z (!4!=fd) | %127
 (3(ceG) T!3!!5!G3/2^F/4G/4[K:bass] (3z!p! (=F[F,=B,D]) | ([F,=B,D]4 [E,G,C])[K:treble] z/ :: %129
!f! c/ | .g2 .g2 .g2 | (!2!^f3/2!3!g/4!5!a/4 !4!g2) z3/2!p! g/ | g2- (3g(.b.a (3.g.f.e) | %133
 (d2 ^c2) z3/2!f! A/ | .[^cb]2 .[da]2 z!p! f | (3(ege) (3(dfd) (3(^cec) | %136
 .[e^c']2 .!2![fd']2 z3/2!p! f/ | (3(ege) (3(dfd) (3(^cec) |!f! c2 T!3!!5!_e3 d/e/ | %139
 !1!d2 (3z!p! (g^f) g2 | (3z bx b2 (3z (d'^c') | (3(d'bg) (3(d'bg) (3(d'bg) | %142
!f! !3!f2- (3f!p!(e!1!f (3gab) |!f! (!1!=b/c'/d'/c'/)!p!{!4!c'} _ba/g/{g} fe/d/ | %144
!f!{/d} c2{/=B} c2({/Bcd)} c2 | (b2 B2) z!p! A | (3(GBG) (3(FAF) (3(EGE) |!f! (b2 B2) z3/2 B/ | %148
 (b2 B2) z!p! A | (3(AG) z z4 | (3(f=B) z z4 | (3c!p!c'c' (3c'c'c' (3c'c'c' | %152
!f! (3z (eg)!p! (3(feg) (3(feg) |!f! (3z fa (3gfa (3gfa |!f! (3z (g_b)!p! (3(agb) (3(agb) | %155
 (3z!p! (!2!AB (3!1!=Bc^c (3!1!def) |!f! G2- (3G!p!(dc) (3TB!f!AG | (3(c^cd) F2 TE3/2D/4E/4 | %158
 F2 z4 | (3z!f! ([Ge][_Af]) (3z!p! ([Af][Ge]) (3z!f! ([A^c][Bd]) | %160
 (3z!p! ([Bd][Ac]) (3z!f! ([ac'][gb]) (3z!p! ([gb][fa]) | (3z (ag) (3z (gf) (3z (fe) | %162
!f! [ac']2 [gb]2 [fa]2 |!p! (3z (AG) (3z (GF) (3z (FE) | %164
{/!2!!5![Bd]} !1!!4![Ac]2{/!1!!5![Ac]} !2!!4![GB]2{/[GB]} [FA]2 |!p! (3(AG) z z4 | %166
!f! (3(G_A) z z4 |!p! (3(^GA) z z2!f! (3(=bc') z | z2({fga)} Tg3 f/g/ | %169
 f2 (3z!p! (!2!EF) (3(!3!GF!2!!4![GB]) | %170
!f! (3(!2!!5![FA]!1!!4![EG]!2!!3![^D^F]) (3!2!!4![EG]!p!(FG) (3(AG)[Ac] | %171
!f! (3(!2!!4![GB]!1!!5![FA]!2!!4![E^G]) [FA]2 [_ec'-]2 | %172
 (3[_ec'][db]!p![ca-] (3[ca][Bg][Af-] (3[Af][Bg][G=e] | %173
!f! (3([Af]!2!ac') Tc'3/2=b/4c'/4 (3z (!5!_bg) | (3(fac)"_dim." Tc3/2=B/4c/4 (3z!p! (_B[B,EG]) | %175
 (!5![B,EG]4 [A,F]) z/ ::[K:C][M:2/4][Q:1/4=140] G | c4 | f4 | e/g/f/e/ a/f/d/c/ | %180
 B/c/d/B/ A/G/^F/G/ | C4 | F4 | E/G/c/G/ ^F/G/=F/G/ | E/G/c/G/ ^F/G/=F/G/ | E/G/C/E/ D/F/B,/D/ | %186
 C2 z G | c/G/e/c/ g/^f/g/e/ | e/d/^c/d/ c/d/c/d/ | g/a/b/^f/ g/d/e/B/ | d/c/B/c/ B/c/B/c/ | %191
 a/b/c'/a/ ^f/e/d/c/ | c/B/_B/=B/ c/B/_B/=B/ | A/c/e/d/ c/B/A/G/ | ^F z ^fg | ab [ac'][gb] | %196
 [^fa] z ^FG | AB [Ac][GB] | [^FA]2 z d | dd dd | g3 ^f | BB BB | e3 d | GG GG | c2 z B | e2 z G | %206
 ^F2 z [G_B] | [^FA]2 z[K:bass] [G,_B,] | [^F,A,]2 z2 | z4 |[K:treble] z g/c'/ b/^f/e/a/ | %211
 g/d/c/^f/ e/B/A/d/ | c/G/^F/B/ A/E/D/G/ | z [ce] [Bd][^FA] | G2 c z | B z A z | G z cc | BB AA | %218
 d z cc | BB AA | d z c/d/e/c/ | B/c/d/B/ A/B/c/A/ | G/g/b/a/ g/^f/e/d/ | ^c2 =cB | %224
 A z e/c'/b/c'/ | d/b/a/b/ d/a/g/a/ | g/G/B/A/ G/^F/E/D/ | ^C2 =CB, | A, z E/c/B/c/ | %229
 D/c/B/c/ D/A/G/A/ | G/D/G/B/ d/c/A/^F/ | G/g/d/B/ d/c/A/^F/ | G2 z :: d | dd dd | g3 ^f | BB BB | %237
 e3 d | GG GG | c3 B | z4 | z [ce] [_ec'][=eb] | z4 | z [Ac] [Ba][cg] | z4 | z [FA] [^Gf][Ae] | %246
 z a/^d/ c'a | z ^g/e/ bg | z a/^d/ c'a | ^gc'/e/ b/e/a/e/ | ^g/e/c'/e/ b/e/a/e/ | %251
 ^g/e/a/e/ b/e/c'/e/ | b2 e2 | E2 !fermata!z B, | E4 | A4 | G_B/A/ G/F/E/D/ | ^CE/D/ C/A,/B,/C/ | %258
 D4 | G4 | FA/G/ F/E/D/C/ | B,D/C/ B,/G,/A,/B,/ | C4 | F4 | c4 | f4 | e/g/f/e/ a/f/d/c/ | %267
 B/c/d/B/ A/G/^F/G/ | z [eg] [df][ce] | z [Bd] [Ac][GB] | ce dB | c/e/c/G/ ^F/G/=F/G/ | %272
 E/G/C/E/ D/F/B,/D/ | C2 z c | e/c/g/e/ _b/a/b/g/ | g/f/e/f/ e/f/e/f/ | f/c/a/f/ c'/b/c'/a/ | %277
 a/g/^f/g/ f/g/f/g/ | c'/b/a/g/ f/e/d/c/ | e/d/^c/d/ e/d/c/d/ | d/f/a/g/ f/e/d/c/ | B z Bc | %282
 de [df][ce] | [Bd] z B,C | DE [DF][CE] | [B,D]2 z g | gg gg | c'3 b | ee ee | a3 g | cc cc | %291
 f2 z e | a2 z c | B2 z [c_e] | [Bd]2 z [C_E] | [B,D]2 z2 | z4 | z c/f/ e/B/A/d/ | %298
 c/G/F/B/ A/E/D/G/ | F/C/B,/E/ D/A,/G,/C/ | z [fa] [df][Bd] | c2 f z | e z d z | c z ff | ee dd | %305
 g z ff | ee dd | g z f/g/a/f/ | e/f/g/e/ d/e/f/d/ | c2 z [c_e] | [Bd]2 z [C_E] | [B,D]2 z2 | %312
 z2 z g | gg gg | c'3 b | a3 g | f3 e | z4 | z e ^fg | z4 | z c _e=e | z4 | z A Bc | %323
 z [fa] [eg][Bd] | c/c'/e'/d'/ c'/b/a/g/ | ^f2 =fe | d z A/f/e/f/ | G/e/d/e/ G/d/c/d/ | %328
 c/c/e/d/ c/B/A/G/ | ^F2 =FE | D z A,/F/E/F/ | G,/E/D/E/ G,/D/C/D/ | C/G,/C/E/ G/F/D/B,/ | %333
 C/G/c/e/ g/f/d/B/ | c2 [dfb]2 | [cegc']2 z :| %336
V:2
 C,/C/B,/C/ C, z z4 | [F,,F,]2 z2 z E,F,G, | C,/C/B,/C/ C, z z4 | [F,,F,] z z2 z E,F,G, | %4
[K:treble] C/G/E/G/ C/G/E/G/ B,/G/D/G/ B,/G/D/G/ | z4 C/G/E/G/ C/G/E/G/ | %6
 C/G/E/G/ C/G/E/G/ C/A/F/A/ C/A/F/A/ | C/A/F/A/ C/A/F/A/ C/G/E/G/ C/G/E/G/ | %8
[K:bass] E,/G,/C/E/ z2 F,/A,/C/F/ z2 | z [G,C][G,B,][G,D] [^G,D]2 [A,C] z | %10
 C,/E,/G,/C/ z2 F,/A,/C/F/ z2 | z [G,C][G,B,][G,F] [CE]/C/B,/C/ B,,/C,/B,,/C,/ | %12
 C,, z z2 B,/C/B,/C/ B,,/C,/B,,/C,/ | C,, z z2 EG,B,G, | CG,DG, E2 z [F,D] | CB, z2 z4 | %16
 z/ E,,/^G,,/B,,/ E,/^G,/B,/E/ E,2 z [E,G,] | [A,,A,]2 z2 z4 | %18
 z/ D,,/^F,,/A,,/ D,/^F,/A,/D/ D,2 z [D,F,] |[K:treble] G,/G/^F/G/ B,/G/F/G/ C/G/F/G/ C/G/F/G/ | %20
 B,/G/^F/G/ G,/G/F/G/ C/G/F/G/ C/G/F/G/ | B,2 z ^G A2 z ^F | G2 z E C2 z ^C | D2 z ^G A2 z ^F | %24
 G2 z E C/G/^F/G/ D/G/F/G/ | E/G/^F/G/ D/G/F/G/ C/G/F/G/ D/G/F/G/ | %26
 E/G/^F/G/ D/G/F/G/ z [CE][B,_E][C=E] | z [CE][B,_E][C=E] z [CE][B,_E][C=E] | z8 | %29
[K:bass] D,/B,/G,/B,/ D,/B,/G,/B,/ D,/C/^F,/C/ D,/C/F,/C/ | G,/D/B,/D/ G, z ^F,/D/A,/D/ F, z | %31
 G,/D/B,/D/ G, z [C,E,A,]2 [D,A,C]2 | [G,B,] z G,,/G,/^F,/G,/ F, z ^F,,/F,/E,/F,/ | %33
 G, z G,,/G,/^F,/G,/ [C,E,A,]2 [D,A,C]2 | [G,B,]2 z2 z4 | z2 [A,,A,]2 [^F,,^F,]2 [D,,D,]2 | %36
 G,,/G,/^F,/G,/ F,/G,/F,/G,/ G,,2 z2 | z8 :: G,,/G,/^F,/G,/ G,, z z4 | G,,/G,/^F,/G,/ G,, z z4 | %40
 F,,/F,/E,/F,/ F,, z z4 | F,,/F,/E,/F,/ F,, z z4 | E,,/E,/D,/E,/ E,, z z4 | %43
 D,,/D,/^C,/D,/ D,, z z4 | [E,,E,]2 z ^G, A,/C/=G,/C/ ^F,/C/_E,/C/ | %45
 D,2 z ^F, G,/_B,/=F,/B,/ E,/B,/D,/B,/ | C,2 z E, F,/C/_B,/A,/ B,/C/D/E/ | %47
[K:treble] F/c/A/c/ F/c/A/c/ E/c/G/c/ E/c/G/c/ | D/B/G/B/ D/B/G/B/ C/c/G/c/ C/c/G/c/ | %49
 C/G/E/G/ C/G/E/G/ B,/G/D/G/ B,/G/D/G/ | A,/^F/C/F/ A,/F/C/F/ [G,G]2 z2 | %51
[K:bass] G,,/G,/^F,/G,/ A,/G,/F,/G,/ G,,2 z2 | G,,/G,/^F,/G,/ A,/G,/F,/G,/ G,,2 z2 | %53
[K:treble] G,/G/^F/G/ A/G/F/G/ G,2 z2 | G,/G/^F/G/ A/G/F/G/ G,2 z2 | %55
[K:bass] z/ G,/^F,/G,/ C/G,/E,/C,/ G,,2 z2 | z8 | C,/C/B,/C/ C, z z4 | [C,C]2 z2 z E,F,G, | %59
 C,/C/B,/C/ C, z z4 | [F,,F,]2 z2 z E,F,G, |[K:treble] C/G/E/G/ C/G/E/G/ _B,/G/C/G/ B,/G/C/G/ | %62
 _B,/G/E/G/ B,/G/E/G/ A,/G/C/E/ A,/F/C/F/ | A,/F/C/F/ A,/F/C/F/ G,/E/_B,/E/ G,/E/B,/E/ | %64
 G,/E/^C/E/ G,/E/C/E/[K:bass] F,/D/_A,/D/ F,/D/A,/D/ | %65
 E,/C/G,/C/ _E,/C/G,/C/ D,/C/A,/C/ B,,/G,/D,/G,/ | %66
 C,/C/G,/C/ ^F,/C/A,/C/ G,/G,/F,/G,/ ^F,,/G,,/F,,/G,,/ | G,,,2 z2 ^F,/G,/F,/G,/ ^F,,/G,,/F,,/G,,/ | %68
 G,,,2 z2 z4 | z4 z/ A,,,/^C,,/E,,/ A,,/^C,/E,/A,/ | A,,2 z2 [A,,A,]2 z [A,^C] | [D,D]2 z2 z4 | %72
 z/ G,,/B,,/D,/ G,/B,/D/G/ G,2 z2 | [G,,G,]2 z [G,B,][K:treble] C/G/E/G/ C/G/E/G/ | %74
 C/A/F/A/ C/A/F/A/ C/G/E/G/ C/G/E/G/ | C/A/F/A/ C/A/F/A/ [CE]2 z ^c | d2 z B c2 z A | %77
 F2 z ^F G,/G/F/G/[K:bass] E,/C/B,/C/ | F,/C/B,/C/ F,/C/B,/C/ E,/C/B,/C/ C,/C/B,/C/ | %79
 F,/C/B,/C/ F,/C/B,/C/ E,2 z ^C | D2 z B, C2 z A, | F,,/A,,/D,/F,/ z2 G,,/B,,/E,/G,/ z2 | %82
 A,,/C,/F,/A,/ z2 B,,/D,/G,/B,/ z2 | z2 D/B,/G,/F,/ E,G,B,G, | CG,DG, E2 z [F,D] | %85
 CB, z2[K:treble] F/c/B/c/ G/c/B/c/ | A/c/B/c/ G/c/B/c/ F/c/B/c/ G/c/B/c/ | %87
 A/c/B/c/ G/c/B/c/ z [FA][E^G][FA] | z [FA][E^G][FA] z [FA][EG][FA] | z8 | %90
[K:bass] G,/E/C/E/ G,/E/C/E/ G,/F/B,/F/ G,/F/B,/F/ |[K:treble] C/G/E/G/ C z B,/G/D/G/ B, z | %92
 C/G/E/G/ C z[K:bass] [F,A,D]2 [G,DF]2 | [CE] z C,/C/B,/C/ B, z B,,/B,/A,/B,/ | %94
 C z C,,/C,/B,,/C,/ [F,,A,,D,]2 [G,,D,F,]2 | [C,E,]2 z2 z4 | z2 [D,,D,]2 [B,,,B,,]2 [G,,,G,,]2 | %97
 C,,/C,/B,,/C,/ B,,/C,/B,,/C,/ C,,2 z2 | z8 | C,/C/E/C/ G,/C/E,/G,/ C,2 z2 :|[K:F][M:3/4] z/ | %101
 (3(F,A,C) (3(G,B,C) (3(F,A,C) | (3(!5!E,G,C) (3(C,E,G,)!p! (3(F,A,C) | %103
 (3(B,,D,G,) (3(C,F,A,) (3(C,G,B,) | (3(D,F,B,) (3(E,G,C) (3(F,A,C) | %105
 (3(B,,D,G,) (3(C,F,A,) (3(C,G,B,) | (3A,CA, F,2 z2 | [C,,C,]2 z2 z2 | %108
 [F,,F,]2 (3z [_E,_E][D,D] (3[C,C][B,,B,][A,,A,] | [B,,B,]2 B,,2 =B,,2 | C,2 z2 z2 | %111
[K:treble] (3z!f! (DF)!p! (3(EDF) (3(EDF) | (3z!f! (EG)!p! (3(FEG) (3(FEG) | %113
 (3z!f! (=B,D)!p! (3(CB,D) (3(CB,D) | C2 z2 z2 |[K:bass]!f! ([^F,A,C]2!p! [G,=B,]2) z [=F,G,B,] | %116
 E,F, (3!5!G,CE (3G,DF | (3z!p! (!4!E,F, (3^F,G,!4!^G, (3A,=B,C) | %118
!f! [^F,,^F,]2!p! [G,,G,]2!f! [=B,,=B,]2 |!p! [C,C]2!f! [^G,,^G,]2!p! [A,,A,]2 |!p! F,2 G,4 | %121
 (3z!f! ([=B,,,=B,,][C,,C,]) (3z ([^C,,^C,][D,,D,]) (3z ([^D,,^D,][E,,E,]) | %122
 (3z!p! [F,A,C][F,A,C] (3[F,A,C][F,A,C][F,A,C] (3[F,A,C][F,A,C][F,A,C] | %123
 (3z!f! [^F,A,C][F,A,C] (3[F,A,C][F,A,C][F,A,C] (3[F,A,C][F,A,C][F,A,C] | %124
 (3z!p! [G,CE][G,CE] (3[G,CE][G,CE][G,CE] (3z!f! [G,CE][G,CE] | %125
 (3[^F,A,C][F,A,C][F,A,C] (3[G,C][G,C][G,C] (3[G,=B,][G,B,][G,B,] | [C,C]2 (3z (CE) (3(FD=B,) | %127
 [C,C]2 (3z!p! (E,C,) G,,2 | C,,4- C,, z/ :: z/ |[K:treble] (3(CEG) (3(CEG) (3(CEG) | %131
 (3(=B,DG) (3(B,DG) (3(B,DG) | (3(B,DG) (3(B,DG) (3(B,DG) | (3(A,DF) (3(A,^CE) (3(A,CE) | %134
[K:bass]!f! (3(G,^CE) (3(F,A,D)!p! (3(D,F,A,) | (3(G,B,E) (3(A,DF) (3(A,^CE) | %136
!f! (3(G,^CE) (3(F,A,D)!p! (3(D,F,A,) | (3(G,B,E) (3(A,DF) (3(A,^CE) | %138
[K:treble] (3(A,_E^F) (3(A,CF) (3(A,CF) | (3[B,DG]!p!(BA B2) (3z ([Bd][A^c] | %140
 [Bd]2) (3z ([Bg][A^f] [Bg]2) | z6 | ([FA]2 [GB]2) z2 | z6 |[K:bass] (3F,A,C (3G,B,C (3F,A,C | %145
 (3E,G,C (3C,E,G, (3F,A,C | (3B,,D,G, (3C,F,A, (3C,G,B, |!f! (3_D,E,G, (3C,E,G,!p! (3D,E,!p!G, | %148
!f!!f! (3C,E,G, (3^C,E,G,!p! (3D,F,A, | %149
[K:treble] (3z [=B,DF][B,DF] (3[B,DF][B,DF][B,DF] (3[B,DF][B,DF][B,DF] | %150
[K:bass]!f!!f! (3[D,F,=B,][D,F,B,][D,F,B,] (3[D,F,B,][D,F,B,][D,F,B,] (3[D,F,B,][D,F,B,][D,F,B,] | %151
 !arpeggio![C,E,G,C]2 z4 |[K:treble] (3z!f! (GB)!p! (3(AGB) (3(AGB) | %153
 (3z!f! (Ac)!p! (3(BAc) (3(BAc) | (3z!f! (EG)!p! (3(FEG) (3(FEG) | F2 z4 | %156
!f! ([=B,DF]2!p! [CE]2) z[K:bass]!f! [B,,C,E,] | F,,B,, (3(C,F,A,) (3(C,G,B,) | %158
 (3z (A,,B,, (3=B,,C,^C, (3D,E,F,) |!f! [=B,,,=B,,]2!p! [C,,C,]2!f! [E,,E,]2 | %160
!p! [F,,F,]2!f! [^C,^C]2!p! [D,D]2 |[K:treble] (!1!B2 !1!A2 G2) | %162
[K:bass] (3z!f! ([E,E][F,F]) (3z ([^F,^F][G,G]) (3z ([^G,^G][A,A]) | (B,2 A,2 G,2) | %164
 (3z!f! ([E,,E,][F,,F,]) (3z ([^F,,^F,][G,,G,]) (3z ([^G,,^G,][A,,A,]) | %165
[K:treble]!p! (3[B,DF][B,DF][B,DF] (3[B,DF][B,DF][B,DF] (3[B,DF][B,DF][B,DF] | %166
 (3z!f! [=B,DF][B,DF] (3[B,DF][B,DF][B,DF] (3[B,DF][B,DF][B,DF] | %167
 (3z!p! [CF][CF] (3[CFA][CFA][CFA] (3z!f! [CFA][CFA] | %168
 (3[=B,FG][B,FG][B,FG] (3[B,FG][B,FG][B,FG] (3[CEB][CEB][CEB] | (3[FA]CA,[K:bass] [F,,F,]2 z2 | %170
 [C,,C,]2 z4 | [F,,F,]2 (3z [_E,_E][D,D] (3[C,C][B,,B,][A,,A,] | [B,,B,]2!p! [C,C]2 [C,,C,]2 | %173
!f! [F,,F,]2 (3z[K:treble] (!3!FA) (3(!2!B!1!GE) |[K:bass] [F,F]2 (3z!p! (A,F,) [C,,C,]2 | %175
 F,,4- F,, z/ ::[K:C][M:2/4] z |[K:treble] z [EG] [DF][CE] | z [B,D] [A,C][G,B,] | Cc F^F | %180
 G2 G,2 |[K:bass] z [E,G,] [D,F,][C,E,] | z [B,,D,] [A,,C,][G,,B,,] | C,E, D,B,, | C,E, D,B,, | %185
 C,E, F,G, | C,G,, C,,2 |[K:treble] [CEG]2 z2 | [B,DG]2 z2 | [B,DG]2 z2 | [A,C^F]2 z2 | [D^F]4 | %192
 [EG]2 [D^F]2 | [CE]3 [^CE] | D/d/^c/d/ =c/d/B/d/ | A/d/G/d/ ^F/d/G/d/ | %196
 D/[K:bass]D/^C/D/ =C/D/B,/D/ | A,/D/G,/D/ ^F,/D/G,/D/ | D,2 z2 | z4 |[K:treble] z B ^cd | z4 | %202
 z G AB | z4 | z E ^FG | z C ^C2 | D^c d2 | z ^C D2 |[K:bass] z [_E,,_E,] [=E,,=E,][^F,,^F,] | %209
 [G,,G,][B,,,B,,] [C,,C,][D,,D,] | [E,,E,][K:treble]e dc | BA G^F | ED CB, |[K:bass] C,2 D,2 | %214
 G,,/G,/^F,/G,/ E,/G,/F,/G,/ | D,/G,/^F,/G,/ C,/G,/F,/G,/ | B,,/G,/^F,/G,/ E,/G,/F,/G,/ | %217
 D,/G,/^F,/G,/ C,/G,/F,/G,/ | B,,/G,/^F,/G,/[K:treble] E/G/^F/G/ | D/G/^F/G/ C/G/F/G/ | %220
 B,/G/^F/G/ [CEA]2 | [DG]2 [D^F]2 | [G,G]2 z2 | [EG]2 [^FA]G | [CE] z C/A/^G/A/ | %225
 D/G/^F/G/ D/F/E/F/ | G2 z2 |[K:bass] [E,G,]2 [^F,A,]G, | [C,E,] z C,/A,/^G,/A,/ | %229
 D,/G,/^F,/G,/ D,/F,/E,/F,/ | G,2 [D,A,]2 | [G,B,]2 [D,A,C]2 | [G,B,]2 z :: z | z4 | %235
[K:treble] z [B,D] [^CB][DA] | z4 | z [G,B,] [_B,G][=B,^F] | [B,F]2 [CE]2 | A,2 z E | EE EE | %241
 A3 G | CC CC | F3 E | A,A, A,A, | D3 C |[K:bass] [F,F]2 z [F,,F,] | [E,,E,]2 z [E,E] | %248
 [F,F]2 z [F,,F,] | [E,,E,][K:treble]A ^Gc | BA ^Gc | Bc ^GA | [E^G]2 E2 |[K:bass] [E,,E,]2 z z | %254
 z [G,B,] [^F,A,][E,G,] | z [^D,^F,] [C,E,][B,,=D,] | [E,,E,]4 | [G,,G,]4 | %258
 [F,,F,][F,A,] [E,G,][D,F,] | z [^C,E,] [B,,D,][A,,=C,] | [D,,D,]4 | [F,,F,]4 | %262
 [E,,E,][E,G,] [D,F,][C,E,] | z [B,,D,] [A,,C,][G,,B,,] | z[K:treble] [EG] [DF][CE] | %265
 z [B,D] [A,C][G,B,] | Cc F^F | G2 G,2 |[K:bass] [C,,C,]4 | [F,,F,]4 | E,/G,/C/G,/ ^F,/G,/=F,/G,/ | %271
 E,E, D,B,, | C,E, F,G, | C,G,, C,,2 |[K:treble] [CG_B]2 z2 | [CFA]2 z2 | [CFA]2 z2 | [CEG]2 z2 | %278
 [EG]2 z2 | [FA]2 z2 | [FA]3 [^FA] | G,/G/^F/G/ =F/G/E/G/ | D/G/C/G/ B,/G/C/G/ | %283
 G,/[K:bass]G,/^F,/G,/ =F,/G,/E,/G,/ | D,/G,/C,/G,/ B,,/G,/C,/G,/ | G,,2 z2 | z4 | %287
[K:treble] z e ^fg | z4 | z c de | z4 | z A Bc | z F ^F2 | G^f g2 |[K:treble] z ^F G2 | %295
[K:bass] z [^F,,^F,] [G,,G,][A,,A,] | [C,C][E,,E,] [F,,F,][G,,G,] | [A,,A,][K:treble]A GF | %298
 ED CB, |[K:bass] A,G, F,E, | F,2 G,2 | C,/C/B,/C/ A,/C/B,/C/ | G,/C/B,/C/ F,/C/B,/C/ | %303
 E,/C/B,/C/ A,/C/B,/C/ | G,/C/B,/C/ F,/C/B,/C/ | E,/C/B,/C/[K:treble] A/c/B/c/ | %306
 G/c/B/c/ F/c/B/c/ | E/c/B/c/ [FAd]2 | [Gc]2 [GB]2 | z ^f g2 |[K:bass] z ^F, G,2 | z ^F,, G,,2 | %312
 z4 | z4 | z4 | z4 | z2 z [G,,G,] | [G,,G,][G,,G,] [G,,G,][G,,G,] | [C,C]3 [B,,B,] | %319
 [E,,E,][E,,E,] [E,,E,][E,,E,] | [A,,A,]3 [G,,G,] | [C,,C,][C,,C,] [C,,C,][C,,C,] | %322
 [F,,F,]3 [E,,E,] | [F,,F,]2 [G,,G,]2 | C,2 z2 |[K:treble] [Ac]2 [Bd]c | %326
 [FA] z[K:bass] F,/D/^C/D/ | G,/C/B,/C/ G,/B,/A,/B,/ | [C,C]2 z2 | [A,C]2 [B,D]C | %330
 [F,A,] z F,,/D,/^C,/D,/ | G,,/C,/B,,/C,/ G,,/B,,/A,,/B,,/ | C,2 [G,,D,]2 | [C,E,]2 [G,D]2 | %334
 [CE]2 [G,,G,]2 | [C,,C,]2 z :| %336
V:3
 x8 | x8 | x8 | x8 |[K:treble] x8 | x8 | x8 | x8 |[K:bass] x8 | x8 | x8 | x8 | x8 | x8 | x8 | %15
 G,2 x6 | x8 | x8 | x8 |[K:treble] x8 | x8 | x8 | x8 | x8 | x8 | x8 | x8 | x8 | x8 |[K:bass] x8 | %30
 x8 | x8 | x8 | x8 | x8 | x8 | x8 | x8 :: x8 | x8 | x8 | x8 | x8 | x8 | x8 | x8 | x8 | %47
[K:treble] x8 | x8 | x8 | x8 |[K:bass] x8 | x8 |[K:treble] x8 | x8 |[K:bass] x8 | x8 | x8 | x8 | %59
 x8 | x8 |[K:treble] x8 | x8 | x8 | x4[K:bass] x4 | x8 | x8 | x8 | x8 | x8 | x8 | x8 | x8 | %73
 x4[K:treble] x4 | x8 | x8 | x8 | x6[K:bass] x2 | x8 | x8 | x8 | x8 | x8 | x8 | x8 | %85
 G,2 x2[K:treble] x4 | x8 | x8 | x8 | x8 |[K:bass] x8 |[K:treble] x8 | x4[K:bass] x4 | x8 | x8 | %95
 x8 | x8 | x8 | x8 | x8 :|[K:F][M:3/4] x/ | x6 | x6 | x6 | x6 | x6 | x6 | x6 | x6 | x6 | x6 | %111
[K:treble] x6 | x6 | x6 | x6 |[K:bass] x6 | x6 | x6 | x6 | x6 | (F2 E2 D2) | x6 | x6 | x6 | x6 | %125
 x6 | x6 | x6 | x11/2 :: x/ |[K:treble] x6 | x6 | x6 | x6 |[K:bass] x6 | x6 | x6 | x6 | %138
[K:treble] x6 | x6 | x6 | x6 | C4 x2 | x6 |[K:bass] x6 | x6 | x6 | x6 | x6 |[K:treble] x6 | %150
[K:bass] x6 | x6 |[K:treble] x6 | x6 | x6 | x6 | x5[K:bass] x | F,2 x4 | x6 | x6 | x6 | %161
[K:treble] B,2 C4 |[K:bass] x6 | B,,2 C,4 | x6 |[K:treble] x6 | x6 | x6 | x6 | x2[K:bass] x4 | x6 | %171
 x6 | x6 | x8/3[K:treble] x4/3 C2 |[K:bass] x6 | x11/2 ::[K:C][M:2/4] x |[K:treble] x4 | x4 | x4 | %180
 x4 |[K:bass] x4 | x4 | x4 | x4 | x4 | x4 |[K:treble] x4 | x4 | x4 | x4 | x4 | x4 | x4 | x4 | x4 | %196
 x/[K:bass] x7/2 | x4 | x4 | x4 |[K:treble] z E2 D | x4 | z C2 B, | x4 | z A,2 G, | x4 | x4 | x4 | %208
[K:bass] x4 | x4 | x[K:treble] x3 | x4 | x4 |[K:bass] x4 | x4 | x4 | x4 | x4 | x2[K:treble] x2 | %219
 x4 | x4 | x4 | x4 | x4 | x4 | x4 | x4 |[K:bass] x4 | x4 | x4 | x4 | x4 | x3 :: x | x4 | %235
[K:treble] x4 | x4 | x4 | x4 | x4 | x4 | x4 | x4 | x4 | x4 | x4 |[K:bass] x4 | x4 | x4 | %249
 x[K:treble] x z E | E2 z E | E4 | x4 |[K:bass] x4 | x4 | x4 | x4 | x4 | x4 | x4 | x4 | x4 | x4 | %263
 x4 | x[K:treble] x3 | x4 | x4 | x4 |[K:bass] x4 | x4 | x4 | x4 | x4 | x4 |[K:treble] x4 | x4 | %276
 x4 | x4 | x4 | x4 | x4 | x4 | x4 | x/[K:bass] x7/2 | x4 | x4 | x4 |[K:treble] z A2 G | x4 | %289
 z F2 E | x4 | z D2 C | x4 | x4 |[K:treble] x4 |[K:bass] x4 | x4 | x[K:treble] x3 | x4 | %299
[K:bass] x4 | x4 | x4 | x4 | x4 | x4 | x2[K:treble] x2 | x4 | x4 | x4 | x4 |[K:bass] x4 | x4 | x4 | %313
 x4 | x4 | x4 | x4 | x4 | x4 | x4 | x4 | x4 | x4 | x4 | x4 |[K:treble] x4 | x2[K:bass] x2 | x4 | %328
 x4 | x4 | x4 | x4 | x4 | x4 | x4 | x3 :| %336
V:4
 x8 | x8 | x8 | x8 | x8 | x8 | x8 | x8 | x8 | x8 | x8 | x8 | x8 | x8 | x8 | x8 | x8 | x8 | x8 | %19
 x8 | x8 | x8 | x8 | x8 | x8 | x8 | x8 | x8 | x8 | x8 | x8 | x8 | x8 | x8 | x8 | x8 | x8 | x8 :: %38
 x8 | x8 | x8 | x8 | x8 | x8 | x8 | x8 | x8 | x8 | x8 | x8 | x8 | x8 | x8 | x8 | x8 | x8 | x8 | %57
 x8 | x8 | x8 | x8 | x8 | x8 | x8 | x8 | x8 | x8 | x8 | x8 | x8 | x8 | x8 | x8 | x8 | x8 | x8 | %76
 x8 | x8 | x8 | x8 | x8 | x8 | x8 | x8 | x8 | x8 | x8 | x8 | x8 | x8 | x8 | x8 | x8 | x8 | x8 | %95
 x6[K:bass] x2 | x8 | x13/2[K:treble] x3/2 | x8 | x8 :|[K:F][M:3/4] x/ | x6 | x6 | x6 | x6 | x6 | %106
 x6 | x6 | x4 (!2!_e2 | d6) | x6 |({/!2!^fga)} !3!!5!g6 |({/!4!ag^f)} !5!g6 | %113
({/!2!^fga)} !3!!4!g6 | x6 | x6 | x6 | x6 | x6 | x6 | (3z (ed) (3z (!5!dc) (3z (c=B) | x6 | x6 | %123
 x6 | x6 | x6 | x6 | x4[K:bass] x2 | x5[K:treble] x/ :: x/ | x6 | x6 | x6 | x6 | x6 | x6 | x6 | %137
 x6 | x6 | x6 | x6 | x6 | x6 | x6 | x6 | x6 | x6 | x6 | x6 | x6 | x6 | x6 |({/=bc'd')} c'6 | %153
({/d'c'=b)} c'6 |({/=bc'd')} c'6 | x6 | x6 | x6 | x6 | x6 | x6 | (!2!d2 !1!c2 !2!B2) | x6 | %163
 (D2 C2 B,2) | x6 | x6 | x6 | x6 | x6 | x6 | x6 | x6 | x6 | x6 | x6 | x11/2 ::[K:C][M:2/4] x | x4 | %178
 x4 | x4 | x4 | x4 | x4 | x4 | x4 | x4 | x4 | x4 | x4 | x4 | x4 | x4 | x4 | x4 | x4 | x4 | x4 | %197
 x4 | x4 | x4 | x4 | x4 | x4 | x4 | x4 | x4 | x4 | x3[K:bass] x | x4 | x4 |[K:treble] x4 | x4 | %212
 x4 | x4 | x4 | x4 | x4 | x4 | x4 | x4 | x4 | x4 | x4 | x4 | x4 | x4 | x4 | x4 | x4 | x4 | x4 | %231
 x4 | x3 :: x | x4 | x4 | x4 | x4 | x4 | z E A^G | x4 | x4 | x4 | x4 | x4 | x4 | x4 | x4 | x4 | %249
 x4 | x4 | x4 | x4 | x4 | x4 | x4 | x4 | x4 | x4 | x4 | x4 | x4 | x4 | z2 z G | x4 | x4 | x4 | x4 | %268
 x4 | x4 | x4 | x4 | x4 | x4 | x4 | x4 | x4 | x4 | x4 | x4 | x4 | x4 | x4 | x4 | x4 | x4 | x4 | %287
 x4 | x4 | x4 | x4 | x4 | x4 | x4 | x4 | x4 | x4 | x4 | x4 | x4 | x4 | x4 | x4 | x4 | x4 | x4 | %306
 x4 | x4 | x4 | x4 | x4 | x4 | x4 | x4 | z a ^fg | z f ^de | z d Bc | x4 | z A2 G | x4 | z ^F2 E | %321
 x4 | z D2 C | x4 | x4 | x4 | x4 | x4 | x4 | x4 | x4 | x4 | x4 | x4 | x4 | x3 :| %336

